offer/images/bg-h.svg

<svg height="476" viewBox="0 0 1440 476" width="1440" xmlns="http://www.w3.org/2000/svg" xmlns:xlink="http://www.w3.org/1999/xlink"><linearGradient id="a" x1="101.940104%" x2="10.752496%" y1="162.358159%" y2="-9.354737%"><stop offset="0" stop-color="#376aa4"/><stop offset="1" stop-color="#0b294e"/></linearGradient><g fill="none" transform="translate(-1 -373)"><path d="m0 849h1441v-849h-1440z" fill="url(#a)"/><g fill="#0c6cd4" fill-opacity=".079965"><path d="m269.610408 514.03625-14.389591 8.46375-14.389592 8.235-114.888327 66.3375-43.0545713-24.93375 114.8883263-66.3375 28.664981-16.69875-28.664981-16.584375-28.66498 16.584375-115.0025295 66.451875-43.0545718-24.93375 114.8883263-66.3375 28.779184-16.69875-28.779184-16.584375-28.6649797 16.584375-129.2779183 74.915625v183l157.942898 91.5 158.057102-91.5v-183zm-272.610408 41.96375 115 66.333333v132.666667l-115-66.333333zm259 132.628588-115 66.371412v-132.742824l115-66.257176z"/><path d="m1446.61041 514.03625-14.38959 8.46375-14.38959 8.235-114.88833 66.3375-43.05457-24.93375 114.88832-66.3375 28.66498-16.69875-28.66498-16.584375-28.66498 16.584375-115.00253 66.451875-43.05457-24.93375 114.88833-66.3375 28.77918-16.69875-28.77918-16.584375-28.66498 16.584375-129.27792 74.915625v183l157.9429 91.5 158.0571-91.5v-183zm-272.61041 41.96375 115 66.333333v132.666667l-115-66.333333zm259 132.628588-115 66.371412v-132.742824l115-66.257176z"/><path d="m178.610408 862.03625-14.389591 8.46375-14.389592 8.235-114.8883266 66.3375-43.05457169-24.93375 114.88832629-66.3375 28.664981-16.69875-28.664981-16.584375-28.6649797 16.584375-115.0025298 66.451875-43.0545718-24.93375 114.8883267-66.3375 28.7791833-16.69875-28.7791833-16.584375-28.66498008 16.584375-129.27791832 74.915625v183l157.9428984 91.5 158.0571016-91.5v-183zm-272.610408 41.96375 115 66.333333v132.666667l-115-66.33333zm259 132.62859-115 66.37141v-132.742824l115-66.257176z"/><path d="m1555.61041 857.03625-14.38959 8.46375-14.38959 8.235-114.88833 66.3375-43.05457-24.93375 114.88832-66.3375 28.66498-16.69875-28.66498-16.584375-28.66498 16.584375-115.00253 66.451875-43.05457-24.93375 114.88833-66.3375 28.77918-16.69875-28.77918-16.584375-28.66498 16.584375-129.27792 74.915625v183l157.9429 91.5 158.0571-91.5v-183zm-272.61041 41.96375 115 66.333333v132.666667l-115-66.33333zm259 132.62859-115 66.37141v-132.742824l115-66.257176z"/><path d="m445.29888 772.71-10.701121 6.29-10.70112 6.12-85.439104 49.3-32.018431-18.53 85.439103-49.3 21.317312-12.41-21.317312-12.325-21.317311 12.325-85.524033 49.385-32.018431-18.53 85.439103-49.3 21.402241-12.41-21.402241-12.325-21.317311 12.325-96.140224 55.675v136l117.457535 68 117.542465-68v-136zm-203.29888 31.29 86 49.333333v98.666667l-86-49.333333zm193 98.638347-86 49.361653v-98.723307l86-49.276693z"/><path d="m1198.29888 767.71-10.70112 6.29-10.70112 6.12-85.4391 49.3-32.01844-18.53 85.43911-49.3 21.31731-12.41-21.31731-12.325-21.31731 12.325-85.52404 49.385-32.01843-18.53 85.43911-49.3 21.40224-12.41-21.40224-12.325-21.31732 12.325-96.14022 55.675v136l117.45754 68 117.54246-68v-136zm-203.29888 31.29 86 49.333333v98.666667l-86-49.333333zm193 98.638347-86 49.361653v-98.723307l86-49.276693z"/><path d="m457.29888 309.71-10.701121 6.29-10.70112 6.12-85.439104 49.3-32.018431-18.53 85.439103-49.3 21.317312-12.41-21.317312-12.325-21.317311 12.325-85.524033 49.385-32.018431-18.53 85.439103-49.3 21.402241-12.41-21.402241-12.325-21.317311 12.325-96.140224 55.675v136l117.457535 68 117.542465-68v-136zm-203.29888 31.29 86 49.333333v98.666667l-86-49.333333zm193 98.638347-86 49.361653v-98.723307l86-49.276693z"/><path d="m1262.29888 268.71-10.70112 6.29-10.70112 6.12-85.4391 49.3-32.01844-18.53 85.43911-49.3 21.31731-12.41-21.31731-12.325-21.31731 12.325-85.52404 49.385-32.01843-18.53 85.43911-49.3 21.40224-12.41-21.40224-12.325-21.31732 12.325-96.14022 55.675v136l117.45754 68 117.54246-68v-136zm-203.29888 31.29 86 49.333333v98.666667l-86-49.333333zm193 98.638347-86 49.361653v-98.723307l86-49.276693z"/></g></g></svg>

<?xml version="1.0" encoding="UTF-8"?>
<svg width="1440px" height="476px" viewBox="0 0 1440 476" version="1.1" xmlns="http://www.w3.org/2000/svg" xmlns:xlink="http://www.w3.org/1999/xlink">
    <!-- Generator: Sketch 52.2 (67145) - http://www.bohemiancoding.com/sketch -->
    <title>Shape + Shape Copy 4 + Shape Copy + Shape Copy 5 + Shape Copy 2 + Shape Copy 6 + Shape Copy 3 + Shape Copy 7 Mask</title>
    <desc>Created with Sketch.</desc>
    <defs>
        <linearGradient x1="101.940104%" y1="162.358159%" x2="10.7524957%" y2="-9.35473703%" id="linearGradient-1">
            <stop stop-color="#376AA4" offset="0%"></stop>
            <stop stop-color="#0B294E" offset="100%"></stop>
        </linearGradient>
    </defs>
    <g id="Page-1" stroke="none" stroke-width="1" fill="none" fill-rule="evenodd">
        <g id="offer" fill-rule="nonzero">
            <g id="Shape-+-Shape-Copy-4-+-Shape-Copy-+-Shape-Copy-5-+-Shape-Copy-2-+-Shape-Copy-6-+-Shape-Copy-3-+-Shape-Copy-7-Mask" transform="translate(-1.000000, -373.000000)">
                <g id="Mask" fill="url(#linearGradient-1)">
                    <polygon id="Path-2" points="0 849 1441 849 1441 0 1 0"></polygon>
                </g>
                <path d="M269.610408,514.03625 L255.220817,522.5 L240.831225,530.735 L125.942898,597.0725 L82.8883267,572.13875 L197.776653,505.80125 L226.441634,489.1025 L197.776653,472.518125 L169.111673,489.1025 L54.1091435,555.554375 L11.0545717,530.620625 L125.942898,464.283125 L154.722082,447.584375 L125.942898,431 L97.2779183,447.584375 L-32,522.5 L-32,705.5 L125.942898,797 L284,705.5 L284,522.5 L269.610408,514.03625 Z M-3,556 L112,622.333333 L112,755 L-3,688.666667 L-3,556 Z M256,688.628588 L141,755 L141,622.257176 L256,556 L256,688.628588 Z" id="Shape" fill-opacity="0.0799649004" fill="#0C6CD4"></path>
                <path d="M1446.61041,514.03625 L1432.22082,522.5 L1417.83123,530.735 L1302.9429,597.0725 L1259.88833,572.13875 L1374.77665,505.80125 L1403.44163,489.1025 L1374.77665,472.518125 L1346.11167,489.1025 L1231.10914,555.554375 L1188.05457,530.620625 L1302.9429,464.283125 L1331.72208,447.584375 L1302.9429,431 L1274.27792,447.584375 L1145,522.5 L1145,705.5 L1302.9429,797 L1461,705.5 L1461,522.5 L1446.61041,514.03625 Z M1174,556 L1289,622.333333 L1289,755 L1174,688.666667 L1174,556 Z M1433,688.628588 L1318,755 L1318,622.257176 L1433,556 L1433,688.628588 Z" id="Shape-Copy-4" fill-opacity="0.0799649004" fill="#0C6CD4"></path>
                <path d="M178.610408,862.03625 L164.220817,870.5 L149.831225,878.735 L34.9428984,945.0725 L-8.11167329,920.13875 L106.776653,853.80125 L135.441634,837.1025 L106.776653,820.518125 L78.1116733,837.1025 L-36.8908565,903.554375 L-79.9454283,878.620625 L34.9428984,812.283125 L63.7220817,795.584375 L34.9428984,779 L6.27791832,795.584375 L-123,870.5 L-123,1053.5 L34.9428984,1145 L193,1053.5 L193,870.5 L178.610408,862.03625 Z M-94,904 L21,970.333333 L21,1103 L-94,1036.66667 L-94,904 Z M165,1036.62859 L50,1103 L50,970.257176 L165,904 L165,1036.62859 Z" id="Shape-Copy" fill-opacity="0.0799649004" fill="#0C6CD4"></path>
                <path d="M1555.61041,857.03625 L1541.22082,865.5 L1526.83123,873.735 L1411.9429,940.0725 L1368.88833,915.13875 L1483.77665,848.80125 L1512.44163,832.1025 L1483.77665,815.518125 L1455.11167,832.1025 L1340.10914,898.554375 L1297.05457,873.620625 L1411.9429,807.283125 L1440.72208,790.584375 L1411.9429,774 L1383.27792,790.584375 L1254,865.5 L1254,1048.5 L1411.9429,1140 L1570,1048.5 L1570,865.5 L1555.61041,857.03625 Z M1283,899 L1398,965.333333 L1398,1098 L1283,1031.66667 L1283,899 Z M1542,1031.62859 L1427,1098 L1427,965.257176 L1542,899 L1542,1031.62859 Z" id="Shape-Copy-5" fill-opacity="0.0799649004" fill="#0C6CD4"></path>
                <path d="M445.29888,772.71 L434.597759,779 L423.896639,785.12 L338.457535,834.42 L306.439104,815.89 L391.878207,766.59 L413.195519,754.18 L391.878207,741.855 L370.560896,754.18 L285.036863,803.565 L253.018432,785.035 L338.457535,735.735 L359.859776,723.325 L338.457535,711 L317.140224,723.325 L221,779 L221,915 L338.457535,983 L456,915 L456,779 L445.29888,772.71 Z M242,804 L328,853.333333 L328,952 L242,902.666667 L242,804 Z M435,902.638347 L349,952 L349,853.276693 L435,804 L435,902.638347 Z" id="Shape-Copy-2" fill-opacity="0.0799649004" fill="#0C6CD4"></path>
                <path d="M1198.29888,767.71 L1187.59776,774 L1176.89664,780.12 L1091.45754,829.42 L1059.4391,810.89 L1144.87821,761.59 L1166.19552,749.18 L1144.87821,736.855 L1123.5609,749.18 L1038.03686,798.565 L1006.01843,780.035 L1091.45754,730.735 L1112.85978,718.325 L1091.45754,706 L1070.14022,718.325 L974,774 L974,910 L1091.45754,978 L1209,910 L1209,774 L1198.29888,767.71 Z M995,799 L1081,848.333333 L1081,947 L995,897.666667 L995,799 Z M1188,897.638347 L1102,947 L1102,848.276693 L1188,799 L1188,897.638347 Z" id="Shape-Copy-6" fill-opacity="0.0799649004" fill="#0C6CD4"></path>
                <path d="M457.29888,309.71 L446.597759,316 L435.896639,322.12 L350.457535,371.42 L318.439104,352.89 L403.878207,303.59 L425.195519,291.18 L403.878207,278.855 L382.560896,291.18 L297.036863,340.565 L265.018432,322.035 L350.457535,272.735 L371.859776,260.325 L350.457535,248 L329.140224,260.325 L233,316 L233,452 L350.457535,520 L468,452 L468,316 L457.29888,309.71 Z M254,341 L340,390.333333 L340,489 L254,439.666667 L254,341 Z M447,439.638347 L361,489 L361,390.276693 L447,341 L447,439.638347 Z" id="Shape-Copy-3" fill-opacity="0.0799649004" fill="#0C6CD4"></path>
                <path d="M1262.29888,268.71 L1251.59776,275 L1240.89664,281.12 L1155.45754,330.42 L1123.4391,311.89 L1208.87821,262.59 L1230.19552,250.18 L1208.87821,237.855 L1187.5609,250.18 L1102.03686,299.565 L1070.01843,281.035 L1155.45754,231.735 L1176.85978,219.325 L1155.45754,207 L1134.14022,219.325 L1038,275 L1038,411 L1155.45754,479 L1273,411 L1273,275 L1262.29888,268.71 Z M1059,300 L1145,349.333333 L1145,448 L1059,398.666667 L1059,300 Z M1252,398.638347 L1166,448 L1166,349.276693 L1252,300 L1252,398.638347 Z" id="Shape-Copy-7" fill-opacity="0.0799649004" fill="#0C6CD4"></path>
            </g>
        </g>
    </g>
</svg>
